packages/components/src/telekom/icons/home/home/default.svg

<?xml version="1.0" encoding="UTF-8"?>
<svg width="24px" height="24px" viewBox="0 0 24 24" version="1.1" xmlns="http://www.w3.org/2000/svg" xmlns:xlink="http://www.w3.org/1999/xlink">
    <title>/svg/icon/home/home/default</title>
    <g id="icon/home/home/default" stroke="none" stroke-width="1" fill="none" fill-rule="evenodd">
        <path d="M19,12.1 L20.5,13.6 L20.5,19 C20.5,20.5910715 19.2447067,21.9031888 17.6755899,21.9948821 L17.5,22 L6.49999996,22 C4.90892854,22 3.59681119,20.7447067 3.50511795,19.17559 L3.49999996,19 L3.49999996,13.6 L4.99999996,12.1 L4.99999996,19 C4.99999996,19.8 5.57577852,20.4228374 6.35216768,20.4933442 L6.49999996,20.5 L11.25,20.5 L11.25,16.75 C11.25,16.35 11.6,16 12,16 C12.3666667,16 12.6913194,16.2940972 12.7428819,16.6512153 L12.75,16.75 L12.75,20.5 L17.5,20.5 C18.3,20.5 18.9228373,19.9242215 18.9933442,19.1478323 L19,19 L19,12.1 Z M12,0.849999954 L23.55,12.45 L22.5,13.5 L12,2.99999996 L1.49999996,13.5 L0.449999952,12.45 L12,0.849999954 Z" id="Icon" fill="#000000"></path>
    </g>
</svg>

<svg width="24" height="24" xmlns="http://www.w3.org/2000/svg"><path d="M19 12.1l1.5 1.5V19a3.01 3.01 0 01-2.824 2.995L17.5 22h-11a3.01 3.01 0 01-2.995-2.824L3.5 19v-5.4L5 12.1V19c0 .8.576 1.423 1.352 1.493l.148.007h4.75v-3.75c0-.4.35-.75.75-.75.367 0 .691.294.743.651l.007.099v3.75h4.75c.8 0 1.423-.576 1.493-1.352L19 19v-6.9zM12 .85l11.55 11.6-1.05 1.05L12 3 1.5 13.5.45 12.45 12 .85z" fill="#000" fill-rule="evenodd"/></svg>
